packages/foundations/assets/icons/functional/images/date & time/alarm_clock_plus_16.svg

<svg width="16" height="16" viewBox="0 0 16 16" fill="none" xmlns="http://www.w3.org/2000/svg">
<g clip-path="url(#clip0_185_650)">
<path fill-rule="evenodd" clip-rule="evenodd" d="M11.9492 1.59998C13.1175 1.59998 14.1079 2.53962 14.1079 3.73331C14.1079 4.49521 13.7016 5.18089 13.092 5.58724C13.4222 6.32378 13.6 7.13648 13.6 7.97462C13.6 9.29525 13.1683 10.4889 12.4317 11.4539L13.473 13.1301C13.5511 13.2559 13.6 13.4095 13.6 13.5619C13.6 14.019 13.2699 14.3746 12.8127 14.3746C12.5588 14.3746 12.3125 14.2428 12.1524 13.9936L11.2381 12.5714C10.3238 13.2063 9.20638 13.5873 8.01268 13.5873C6.81907 13.5873 5.70161 13.2063 4.78733 12.5968L3.87304 14.019C3.71286 14.2682 3.46669 14.4 3.23808 14.4C2.55241 14.4 2.2214 13.6884 2.55241 13.1556L3.59364 11.4793C2.88253 10.5143 2.42538 9.29525 2.42538 7.97462C2.42538 7.16192 2.6032 6.34922 2.93332 5.61267C2.29844 5.20633 1.89209 4.49521 1.89209 3.75867C1.89209 2.56505 2.88253 1.59998 4.02542 1.59998C4.86348 1.59998 5.65082 2.08256 6.00638 2.79367C6.66669 2.51426 7.27622 2.41267 8.01268 2.41267C8.7238 2.41267 9.35876 2.48891 10.0191 2.71744C10.4 2.03168 11.1365 1.59998 11.9492 1.59998ZM8.03694 3.98728C5.8141 3.98728 3.99999 5.80131 3.99999 8.02423C3.99999 10.2472 5.8141 12.0612 8.03694 12.0612C10.2599 12.0612 12.0739 10.2472 12.0739 8.02423C12.0739 5.80131 10.2599 3.98728 8.03694 3.98728ZM8.80003 5.59998L8.80001 7.19998H10.4V8.79998H8.80001L8.80003 10.4H7.19998L7.20001 8.79998H5.60001V7.19998H7.20001L7.19998 5.59998H8.80003Z" fill="#1A1C1F"/>
</g>
<defs>
<clipPath id="clip0_185_650">
<rect width="16" height="16" fill="white"/>
</clipPath>
</defs>
</svg>

<svg xmlns="http://www.w3.org/2000/svg" width="16" height="16" fill="none"><g clip-path="url(#a)"><path fill="#1A1C1F" fill-rule="evenodd" d="M11.95 1.6c1.168 0 2.158.94 2.158 2.133 0 .762-.406 1.448-1.016 1.854.33.737.508 1.55.508 2.388 0 1.32-.432 2.514-1.168 3.479l1.041 1.676c.078.126.127.28.127.432 0 .457-.33.813-.787.813a.79.79 0 0 1-.66-.381l-.915-1.423a5.66 5.66 0 0 1-3.225 1.016 5.83 5.83 0 0 1-3.226-.99l-.914 1.422c-.16.25-.406.381-.635.381-.686 0-1.017-.712-.686-1.244l1.042-1.677a5.93 5.93 0 0 1-1.169-3.504c0-.813.178-1.626.508-2.362-.635-.407-1.04-1.118-1.04-1.854 0-1.194.99-2.159 2.132-2.159.838 0 1.626.483 1.981 1.194.66-.28 1.27-.381 2.007-.381.71 0 1.346.076 2.006.304A2.2 2.2 0 0 1 11.95 1.6M8.036 3.987A4.046 4.046 0 0 0 4 8.024a4.046 4.046 0 0 0 4.037 4.037 4.045 4.045 0 0 0 4.037-4.037 4.045 4.045 0 0 0-4.037-4.037M8.8 5.6v1.6h1.6v1.6H8.8v1.6H7.2V8.8H5.6V7.2h1.6V5.6z" clip-rule="evenodd"/></g><defs><clipPath id="a"><path fill="#fff" d="M0 0h16v16H0z"/></clipPath></defs></svg>
